src/components/icons/AppointmentIcon.svg

<svg width="32" height="32" viewBox="0 0 32 32" fill="none" xmlns="http://www.w3.org/2000/svg">
<path d="M25.3496 11.3695L23.9996 12.67L21.1901 15.3805C20.9396 15.6205 20.6201 15.751 20.2796 15.751C20.2091 15.751 20.1401 15.7405 20.0591 15.7315C19.6496 15.661 19.3091 15.412 19.1186 15.052C18.7181 14.2915 18.8081 13.3915 19.3391 12.712L21.3791 10.0825C20.9486 9.532 20.7191 8.863 20.7191 8.152C20.7191 8.1025 20.7191 8.0515 20.7296 8.002C20.7596 7.2025 21.1001 6.4525 21.6896 5.8915C21.8891 5.692 22.1996 5.701 22.3991 5.902C22.5896 6.1015 22.5791 6.412 22.3796 6.6115C21.9896 6.991 21.7601 7.4815 21.7301 8.002C21.7196 8.0515 21.7196 8.1025 21.7196 8.152C21.7196 8.7325 21.9491 9.2815 22.3796 9.7015C22.5701 9.871 22.5896 10.162 22.4291 10.3615L20.1296 13.321C19.8401 13.6915 19.7891 14.1805 20.0096 14.5915C20.0696 14.701 20.1791 14.731 20.2196 14.7415C20.2691 14.752 20.3891 14.761 20.4896 14.662L23.9996 11.2825L24.6491 10.6525C24.8486 10.462 25.1696 10.462 25.3586 10.663C25.5506 10.8595 25.5506 11.1805 25.3496 11.3695Z" fill="#F7A47B"/>
<path d="M23.9006 16C23.7746 16 23.6486 15.952 23.5511 15.8575C23.3531 15.664 23.3501 15.3475 23.5436 15.151L25.4231 13.231C26.4401 12.1945 27.0011 10.828 27.0011 9.3805V5.0005H20.0006V5.881C20.0006 6.0565 19.9076 6.22 19.7576 6.31C18.9986 6.763 18.5171 7.606 18.5006 8.5105C18.4946 8.7865 18.2696 8.98 17.9906 9.001C17.7146 8.995 17.4956 8.767 17.5001 8.491C17.5211 7.3435 18.0896 6.2665 19.0001 5.611V4.4995C19.0001 4.2235 19.2236 4 19.4996 4H27.4991C27.7766 4 28.0001 4.2235 28.0001 4.4995V9.379C28.0001 11.0905 27.3386 12.706 26.1371 13.93L24.2576 15.85C24.1586 15.949 24.0296 16 23.9006 16Z" fill="#F7A47B"/>
<path d="M12.6596 19.2895L10.6196 21.919C11.0501 22.4695 11.2796 23.1385 11.2796 23.8495C11.2796 23.899 11.2796 23.9395 11.2691 23.989C11.2391 24.799 10.9091 25.5385 10.3091 26.1085C10.2086 26.209 10.0886 26.248 9.95962 26.248C9.82912 26.248 9.70012 26.1985 9.59962 26.098C9.40912 25.8985 9.41962 25.588 9.61912 25.3885C10.0196 25.009 10.2386 24.5185 10.2686 23.989C10.2791 23.9395 10.2791 23.899 10.2791 23.8495C10.2791 23.269 10.0496 22.72 9.61912 22.3C9.42862 22.1305 9.40912 21.8395 9.56962 21.64L11.8691 18.6805C12.1586 18.31 12.2096 17.821 11.9891 17.41C11.9291 17.3005 11.8196 17.2705 11.7791 17.26C11.7296 17.2495 11.6096 17.2405 11.5091 17.3395L7.99912 20.719L7.34962 21.349C7.15012 21.5395 6.83062 21.5395 6.64012 21.34C6.44962 21.1405 6.44962 20.8195 6.65062 20.6305L8.00062 19.33L10.8101 16.6195C11.1101 16.33 11.5196 16.1995 11.9396 16.27C12.3491 16.3405 12.6896 16.5895 12.8801 16.9495C13.2806 17.71 13.1906 18.61 12.6596 19.2895Z" fill="#F7A47B"/>
<path d="M12.5005 28H4.4995C4.2235 28 4 27.7765 4 27.5005V22.621C4 20.9095 4.6615 19.294 5.863 18.07L7.7425 16.1515C7.9375 15.955 8.2525 15.952 8.449 16.144C8.647 16.3375 8.65 16.654 8.4565 16.8505L6.577 18.7705C5.56 19.807 4.999 21.1735 4.999 22.621V27.001H11.9995V26.1205C11.9995 25.945 12.0925 25.7815 12.2425 25.6915C13.0015 25.2385 13.483 24.3955 13.4995 23.491C13.5055 23.215 13.732 23.0005 14.0095 23.0005C14.2855 23.0065 14.5045 23.2345 14.5 23.5105C14.479 24.658 13.9105 25.735 13 26.3905V27.502C13 27.7765 12.7765 28 12.5005 28Z" fill="#F7A47B"/>
<path d="M20.4898 14.6604C20.3893 14.7609 20.2693 14.7504 20.2198 14.7399C20.1793 14.7294 20.0698 14.6994 20.0098 14.5899C19.7892 14.1804 19.8402 13.6899 20.1298 13.3193L22.4294 10.3596C22.5899 10.1601 22.5689 9.86912 22.3799 9.69961C21.9494 9.27958 21.7199 8.72905 21.7199 8.15001C21.7199 8.10051 21.7199 8.0495 21.7304 8H8.49953C8.21901 8 8 8.22051 8 8.49953V20.7208L11.5102 17.3411C11.6107 17.2406 11.7307 17.2511 11.7802 17.2616C11.8207 17.2721 11.9302 17.3021 11.9902 17.4116C12.2108 17.8211 12.1598 18.3116 11.8702 18.6822L9.5706 21.6419C9.41009 21.8414 9.43109 22.1324 9.6201 22.3019C10.0506 22.7219 10.2801 23.2725 10.2801 23.8515C10.2801 23.901 10.2801 23.9415 10.2696 23.991H11.2702L23.5005 24C23.631 24 23.76 23.9505 23.85 23.85C23.9505 23.76 24 23.6295 24 23.5005V11.2792L20.4898 14.6604Z" fill="#EF7132"/>
</svg>

<svg width="32" height="32" fill="none" xmlns="http://www.w3.org/2000/svg"><path d="M25.35 11.37L24 12.67l-2.81 2.71c-.25.24-.57.371-.91.371-.07 0-.14-.01-.22-.02-.41-.07-.75-.319-.941-.679-.4-.76-.31-1.66.22-2.34l2.04-2.63c-.43-.55-.66-1.219-.66-1.93 0-.05 0-.1.01-.15.03-.8.371-1.55.96-2.11.2-.2.51-.191.71.01.19.2.18.51-.02.71-.39.379-.619.87-.649 1.39-.01.05-.01.1-.01.15 0 .58.23 1.13.66 1.55.19.169.21.46.05.66l-2.3 2.959c-.29.37-.34.86-.12 1.27.06.11.17.14.21.15.05.011.17.02.27-.079l3.51-3.38.65-.63a.502.502 0 01.7.718z" fill="#F7A47B"/><path d="M23.9 16a.498.498 0 01-.357-.849l1.88-1.92a5.468 5.468 0 001.578-3.85V5h-7v.88a.502.502 0 01-.243.429 2.627 2.627 0 00-1.257 2.2c-.006.277-.231.47-.51.491a.502.502 0 01-.49-.51 3.65 3.65 0 011.5-2.88V4.5A.5.5 0 0119.5 4h8a.5.5 0 01.5.5v4.879a6.46 6.46 0 01-1.863 4.551l-1.88 1.92a.505.505 0 01-.356.15zM12.66 19.29l-2.04 2.629c.43.55.66 1.22.66 1.93 0 .05 0 .09-.01.14-.03.81-.36 1.55-.96 2.12-.101.1-.221.139-.35.139-.13 0-.26-.05-.36-.15-.19-.2-.18-.51.02-.71.4-.379.619-.87.649-1.399.01-.05.01-.09.01-.14 0-.58-.23-1.129-.66-1.549a.48.48 0 01-.05-.66l2.3-2.96c.29-.37.34-.859.12-1.27a.32.32 0 00-.21-.15.297.297 0 00-.27.08L8 20.719l-.65.63c-.199.19-.518.19-.709-.009-.19-.2-.19-.52.01-.71L8 19.33l2.81-2.71c.3-.29.71-.42 1.13-.35.41.07.75.32.94.68.4.76.31 1.66-.22 2.34z" fill="#F7A47B"/><path d="M12.5 28h-8a.5.5 0 01-.5-.5v-4.879a6.46 6.46 0 011.863-4.551l1.88-1.919a.498.498 0 11.714.699l-1.88 1.92a5.468 5.468 0 00-1.578 3.851v4.38h7v-.88c0-.176.093-.34.243-.43a2.627 2.627 0 001.257-2.2.504.504 0 01.51-.49.502.502 0 01.491.51 3.65 3.65 0 01-1.5 2.88v1.111a.499.499 0 01-.5.498z" fill="#F7A47B"/><path d="M20.49 14.66c-.1.1-.22.09-.27.08a.32.32 0 01-.21-.15c-.22-.41-.17-.9.12-1.27l2.3-2.96c.16-.2.139-.49-.05-.66-.43-.42-.66-.97-.66-1.55 0-.05 0-.1.01-.15H8.5c-.281 0-.5.22-.5.5v12.22l3.51-3.379c.1-.1.22-.09.27-.08.04.011.15.041.21.15.22.41.17.9-.12 1.271l-2.3 2.96c-.16.2-.139.49.05.66.43.42.66.97.66 1.55 0 .049 0 .09-.01.139h1L23.5 24c.131 0 .26-.05.35-.15.1-.09.15-.22.15-.35V11.28l-3.51 3.38z" fill="#EF7132"/></svg>
